Corpobello/images/bigLogoCb.svg

<svg xmlns="http://www.w3.org/2000/svg" width="400" height="36.211"><path d="M27.751 1.616c-18.012 5.949-13.84 32.732 5.091 32.683 17.964-.046 23.435-23.895 7.303-31.836C36.597.716 31.526.37 27.751 1.616m75.79 0C85.528 7.565 89.7 34.348 108.632 34.299c17.964-.046 23.435-23.895 7.303-31.836-3.548-1.747-8.62-2.093-12.394-.847m98.526 0c-18.012 5.949-13.84 32.732 5.091 32.683 17.964-.046 23.435-23.895 7.303-31.836-3.548-1.747-8.62-2.093-12.394-.847m-190.378.465C-5.066 7.437-3.006 31.288 14.438 33.903l1.983.298v-1.252c0-1.187-.109-1.266-2.076-1.499C-.881 29.647-.977 6.013 14.232 3.854c1.761-.25 1.993-.408 2.112-1.436.165-1.43-.977-1.513-4.655-.337m42.627 15.603v16.421h2.492l.122-3.434.123-3.435 4.082 3.435c3.819 3.212 4.209 3.434 6.025 3.434h1.943l-4.131-3.407c-4.916-4.055-4.796-3.838-2.659-4.802 12.031-5.425 7.4-24.633-5.94-24.633h-2.057v16.421m19.789-.056v16.477h2.527v-3.158c0-2.857.078-3.158.826-3.158 2.042 0 5.731-1.871 7.833-3.972 8.15-8.15 3.175-21.64-8.284-22.459l-2.902-.208v16.478m64 .056v16.421h2.029c12.935 0 17.613-18.119 6.027-23.343-1.578-.712-1.652-.822-1.118-1.657 2.256-3.525-.266-7.842-4.58-7.842h-2.358v16.421m18.948-12.421c0 3.793-.047 4-.892 4-.718 0-.842.183-.637.948.14.521.257 1.089.26 1.263.003.173.29.315.637.315.546 0 .632 1.521.632 11.158v11.158h8.898l-.134-1.158c-.13-1.131-.203-1.16-3.185-1.281l-3.053-.124V11.789h6.693l-.44-1.263c-.432-1.239-.496-1.263-3.347-1.263h-2.906V3.368h2.947c2.863 0 2.948-.03 2.948-1.052V1.263h-8.421v4m13.052 12.421v16.421h8.421v-2.526h-5.894V1.263h-2.527v16.421m11.369 0v16.421h8.421v-2.526H184V1.263h-2.526v16.421M38.316 4.279c14.727 6.322 10.676 27.489-5.263 27.506-6.257.007-10.013-2.163-12.872-7.437C13.9 12.763 26.248-.902 38.316 4.279m75.789 0c14.727 6.322 10.677 27.489-5.263 27.506-6.257.007-10.012-2.163-12.872-7.437-6.281-11.585 6.067-25.25 18.135-20.069m98.527 0c14.726 6.322 10.676 27.489-5.264 27.506-6.256.007-10.012-2.163-12.871-7.437-6.281-11.585 6.067-25.25 18.135-20.069m-151.579.376c8.961 4.527 6.571 20.187-3.081 20.187h-1.13V3.389l1.369.261c.752.144 2.031.596 2.842 1.005m20.149.164c8.852 4.649 6.06 20.398-3.623 20.44l-.947.004V3.458l1.728.388c.951.214 2.23.652 2.842.973m61.268-.578c1.357 1.068 1.478 2.968.267 4.18-1.616 1.616-2.105 1.127-2.105-2.105 0-3.2.167-3.389 1.838-2.075m1.169 8.037c9.39 2.814 8.446 17.649-1.218 19.134l-1.789.275v-9.949c0-11.093-.213-10.424 3.007-9.46" fill="#FFFFFF" fill-rule="evenodd"/></svg>

<svg id="svg" version="1.1" xmlns="http://www.w3.org/2000/svg" xmlns:xlink="http://www.w3.org/1999/xlink" width="400" height="36.21052631578947"
 viewBox="0, 0, 400,36.21052631578947"><g id="svgg">
 <path id="path0" d="M27.751 1.616 C 9.739 7.565,13.911 34.348,32.842 34.299 C 50.806 34.253,56.277 10.404,40.145 2.463 C 36.597 0.716,31.526 0.370,27.751 1.616 M103.541 1.616 C 85.528 7.565,89.700 34.348,108.632 34.299 C 126.596 34.253,132.067 10.404,115.935 2.463 C 112.387 0.716,107.315 0.370,103.541 1.616 M202.067 1.616 C 184.055 7.565,188.227 34.348,207.158 34.299 C 225.122 34.253,230.593 10.404,214.461 2.463 C 210.913 0.716,205.841 0.370,202.067 1.616 M11.689 2.081 C -5.066 7.437,-3.006 31.288,14.438 33.903 L 16.421 34.201 16.421 32.949 C 16.421 31.762,16.312 31.683,14.345 31.450 C -0.881 29.647,-0.977 6.013,14.232 3.854 C 15.993 3.604,16.225 3.446,16.344 2.418 C 16.509 0.988,15.367 0.905,11.689 2.081 M54.316 17.684 L 54.316 34.105 55.562 34.105 L 56.808 34.105 56.930 30.671 L 57.053 27.236 61.135 30.671 C 64.954 33.883,65.344 34.105,67.160 34.105 L 69.103 34.105 64.972 30.698 C 60.056 26.643,60.176 26.860,62.313 25.896 C 74.344 20.471,69.713 1.263,56.373 1.263 L 54.316 1.263 54.316 17.684 M74.105 17.628 L 74.105 34.105 75.368 34.105 L 76.632 34.105 76.632 30.947 C 76.632 28.090,76.710 27.789,77.458 27.789 C 79.500 27.789,83.189 25.918,85.291 23.817 C 93.441 15.667,88.466 2.177,77.007 1.358 L 74.105 1.150 74.105 17.628 M138.105 17.684 L 138.105 34.105 140.134 34.105 C 153.069 34.105,157.747 15.986,146.161 10.762 C 144.583 10.050,144.509 9.940,145.043 9.105 C 147.299 5.580,144.777 1.263,140.463 1.263 L 138.105 1.263 138.105 17.684 M157.053 5.263 C 157.053 9.056,157.006 9.263,156.161 9.263 C 155.443 9.263,155.319 9.446,155.524 10.211 C 155.664 10.732,155.781 11.300,155.784 11.474 C 155.787 11.647,156.074 11.789,156.421 11.789 C 156.967 11.789,157.053 13.310,157.053 22.947 L 157.053 34.105 161.502 34.105 L 165.951 34.105 165.817 32.947 C 165.687 31.816,165.614 31.787,162.632 31.666 L 159.579 31.542 159.579 21.666 L 159.579 11.789 162.925 11.789 L 166.272 11.789 165.832 10.526 C 165.400 9.287,165.336 9.263,162.485 9.263 L 159.579 9.263 159.579 6.316 L 159.579 3.368 162.526 3.368 C 165.389 3.368,165.474 3.338,165.474 2.316 L 165.474 1.263 161.263 1.263 L 157.053 1.263 157.053 5.263 M170.105 17.684 L 170.105 34.105 174.316 34.105 L 178.526 34.105 178.526 32.842 L 178.526 31.579 175.579 31.579 L 172.632 31.579 172.632 16.421 L 172.632 1.263 171.368 1.263 L 170.105 1.263 170.105 17.684 M181.474 17.684 L 181.474 34.105 185.684 34.105 L 189.895 34.105 189.895 32.842 L 189.895 31.579 186.947 31.579 L 184.000 31.579 184.000 16.421 L 184.000 1.263 182.737 1.263 L 181.474 1.263 181.474 17.684 M38.316 4.279 C 53.043 10.601,48.992 31.768,33.053 31.785 C 26.796 31.792,23.040 29.622,20.181 24.348 C 13.900 12.763,26.248 -0.902,38.316 4.279 M114.105 4.279 C 128.832 10.601,124.782 31.768,108.842 31.785 C 102.585 31.792,98.830 29.622,95.970 24.348 C 89.689 12.763,102.037 -0.902,114.105 4.279 M212.632 4.279 C 227.358 10.601,223.308 31.768,207.368 31.785 C 201.112 31.792,197.356 29.622,194.497 24.348 C 188.216 12.763,200.564 -0.902,212.632 4.279 M61.053 4.655 C 70.014 9.182,67.624 24.842,57.972 24.842 L 56.842 24.842 56.842 14.116 L 56.842 3.389 58.211 3.650 C 58.963 3.794,60.242 4.246,61.053 4.655 M81.202 4.819 C 90.054 9.468,87.262 25.217,77.579 25.259 L 76.632 25.263 76.632 14.361 L 76.632 3.458 78.360 3.846 C 79.311 4.060,80.590 4.498,81.202 4.819 M142.470 4.241 C 143.827 5.309,143.948 7.209,142.737 8.421 C 141.121 10.037,140.632 9.548,140.632 6.316 C 140.632 3.116,140.799 2.927,142.470 4.241 M143.639 12.278 C 153.029 15.092,152.085 29.927,142.421 31.412 L 140.632 31.687 140.632 21.738 C 140.632 10.645,140.419 11.314,143.639 12.278 "
  stroke="none" fill="#FFFFFF" fill-rule="evenodd"></path></g></svg>
